src/images/icons/subscribe.svg

<svg width="24" height="24" xmlns="http://www.w3.org/2000/svg">
  <path d="M13 20H4c-1.1 0-2-.9-2-2l.01-12c0-1.1.89-2 1.99-2h16c1.1 0 2 .9 2 2v7h-2V8l-8 5-8-5v10h9v2zm-1-9l8-5H4l8 5zm8 7h3v2h-3v3h-2v-3h-3v-2h3v-3h2v3z" fill="#3740FF" fill-rule="nonzero"/>
</svg>

<?xml version="1.0" encoding="UTF-8"?>
<svg width="24px" height="24px" viewBox="0 0 24 24" version="1.1" xmlns="http://www.w3.org/2000/svg" xmlns:xlink="http://www.w3.org/1999/xlink">
    <!-- Generator: Sketch 54.1 (76490) - https://sketchapp.com -->
    <title>Artboard</title>
    <desc>Created with Sketch.</desc>
    <g id="Artboard" stroke="none" stroke-width="1" fill="none" fill-rule="evenodd">
        <path d="M13,20 L4,20 C2.9,20 2,19.1 2,18 L2.01,6 C2.01,4.9 2.9,4 4,4 L20,4 C21.1,4 22,4.9 22,6 L22,13 L20,13 L20,8 L12,13 L4,8 L4,18 L13,18 L13,20 Z M12,11 L20,6 L4,6 L12,11 Z M20,18 L23,18 L23,20 L20,20 L20,23 L18,23 L18,20 L15,20 L15,18 L18,18 L18,15 L20,15 L20,18 Z" id="Combined-Shape" fill="#3740FF" fill-rule="nonzero"></path>
    </g>
</svg>
